dist/release/static/symbols/bridges/open_rated.svg

<?xml version="1.0" encoding="UTF-8" standalone="no"?>
<!-- Created with Inkscape (http://www.inkscape.org/) -->
<svg
   xmlns:dc="http://purl.org/dc/elements/1.1/"
   xmlns:cc="http://creativecommons.org/ns#"
   xmlns:rdf="http://www.w3.org/1999/02/22-rdf-syntax-ns#"
   xmlns:svg="http://www.w3.org/2000/svg"
   xmlns="http://www.w3.org/2000/svg"
   xmlns:sodipodi="http://sodipodi.sourceforge.net/DTD/sodipodi-0.dtd"
   xmlns:inkscape="http://www.inkscape.org/namespaces/inkscape"
   width="64px"
   height="64px"
   id="svg3194"
   sodipodi:version="0.32"
   inkscape:version="0.46"
   sodipodi:docname="open_rated.svg"
   inkscape:output_extension="org.inkscape.output.svg.inkscape">
  <defs
     id="defs3196">
    <inkscape:perspective
       sodipodi:type="inkscape:persp3d"
       inkscape:vp_x="0 : 32 : 1"
       inkscape:vp_y="0 : 1000 : 0"
       inkscape:vp_z="64 : 32 : 1"
       inkscape:persp3d-origin="32 : 21.333333 : 1"
       id="perspective3202" />
    <inkscape:perspective
       id="perspective2391"
       inkscape:persp3d-origin="372.04724 : 350.78739 : 1"
       inkscape:vp_z="744.09448 : 526.18109 : 1"
       inkscape:vp_y="0 : 1000 : 0"
       inkscape:vp_x="0 : 526.18109 : 1"
       sodipodi:type="inkscape:persp3d" />
    <inkscape:perspective
       id="perspective2390"
       inkscape:persp3d-origin="372.04724 : 350.78739 : 1"
       inkscape:vp_z="744.09448 : 526.18109 : 1"
       inkscape:vp_y="0 : 1000 : 0"
       inkscape:vp_x="0 : 526.18109 : 1"
       sodipodi:type="inkscape:persp3d" />
  </defs>
  <sodipodi:namedview
     id="base"
     pagecolor="#ffffff"
     bordercolor="#666666"
     borderopacity="1.0"
     inkscape:pageopacity="0.0"
     inkscape:pageshadow="2"
     inkscape:zoom="5.5"
     inkscape:cx="9.0909091"
     inkscape:cy="32"
     inkscape:current-layer="layer1"
     showgrid="true"
     inkscape:document-units="px"
     inkscape:grid-bbox="true"
     inkscape:window-width="1920"
     inkscape:window-height="1147"
     inkscape:window-x="0"
     inkscape:window-y="23" />
  <metadata
     id="metadata3199">
    <rdf:RDF>
      <cc:Work
         rdf:about="">
        <dc:format>image/svg+xml</dc:format>
        <dc:type
           rdf:resource="http://purl.org/dc/dcmitype/StillImage" />
      </cc:Work>
    </rdf:RDF>
  </metadata>
  <g
     id="layer1"
     inkscape:label="Layer 1"
     inkscape:groupmode="layer">
    <g
       id="g2398">
      <path
         style="fill:#00ff00;fill-opacity:1"
         d="M 22.577305,61.101544 C 5.0799216,55.489288 -3.8287449,35.04466 4.1403232,18.79025 C 11.799537,3.1678605 30.252074,-3.1671038 45.727511,4.5128951 C 61.07305,12.128427 67.261081,29.95361 59.812728,45.086633 C 52.938505,59.053185 37.24069,65.804797 22.577305,61.101544 z"
         id="path2400" />
      <path
         style="fill:#000000;fill-opacity:1"
         d="M 24.383686,63.452078 C 8.6751189,59.513651 -2.1987823,43.046001 0.37823986,27.097758 C 2.4134228,14.502766 10.586007,5.2840347 23.215659,1.3369941 C 36.134647,-2.7004714 50.644862,2.6341274 58.379549,14.2648 C 72.456594,35.43249 58.609506,62.858148 33.289383,63.958605 C 30.061905,64.098876 26.054341,63.870942 24.383686,63.452078 z M 30.159707,46.996057 L 30.159707,33.639939 L 17.249793,33.639939 L 4.33988,33.639939 L 4.33988,35.574601 C 4.33988,38.882413 7.4439278,46.036742 10.641384,50.098556 C 13.905345,54.244844 18.767234,57.531289 24.124157,59.212376 C 30.538989,61.225449 30.159707,61.993143 30.159707,46.996057 z M 44.000767,57.508647 C 51.387836,53.979741 57.437964,45.641817 59.467499,36.193314 L 60.015964,33.639939 L 47.435092,33.639939 L 34.854221,33.639939 L 34.854221,47.058477 L 34.854221,60.477019 L 37.397083,59.962785 C 38.795657,59.679958 41.767315,58.575596 44.000767,57.508647 z M 30.159707,16.660946 L 30.159707,3.6102221 L 27.225636,4.1249322 C 16.325052,6.0371695 6.3309525,15.952809 4.6471696,26.526142 L 4.1398812,29.71167 L 17.149794,29.71167 L 30.159707,29.71167 L 30.159707,16.660946 z M 59.398784,27.158295 C 58.572109,22.506097 54.611186,14.973978 51.2889,11.736478 C 47.85731,8.3924645 41.711387,5.0469354 37.397083,4.1744755 L 34.854221,3.6602454 L 34.854221,16.685958 L 34.854221,29.71167 L 47.353365,29.71167 L 59.852508,29.71167 L 59.398784,27.158295 z"
         id="path2390" />
    </g>
  </g>
</svg>

<svg xmlns="http://www.w3.org/2000/svg" width="64" height="64"><path d="M22.577 61.102C5.08 55.489-3.829 35.045 4.14 18.79 11.8 3.168 30.252-3.167 45.728 4.513c15.345 7.615 21.533 25.44 14.085 40.574-6.874 13.966-22.572 20.718-37.236 16.015z" fill="#0f0"/><path d="M24.384 63.452C8.675 59.514-2.2 43.046.378 27.098 2.413 14.503 10.586 5.284 23.216 1.337 36.135-2.7 50.645 2.634 58.38 14.265c14.077 21.167.23 48.593-25.09 49.694-3.228.14-7.236-.088-8.906-.507zm5.776-16.456V33.64H4.34v1.935c0 3.307 3.104 10.462 6.301 14.524 3.264 4.146 8.126 7.432 13.483 9.113 6.415 2.013 6.036 2.781 6.036-12.216zM44 57.51c7.388-3.53 13.438-11.867 15.467-21.316l.549-2.553H34.854v26.837l2.543-.514c1.399-.283 4.37-1.387 6.604-2.454zM30.16 16.66V3.61l-2.934.514C16.326 6.037 6.33 15.953 4.647 26.526l-.507 3.186h26.02V16.66zm29.239 10.497c-.827-4.652-4.788-12.184-8.11-15.422-3.432-3.344-9.578-6.69-13.892-7.562l-2.543-.514v26.052H59.853l-.454-2.554z"/></svg>
